X: 309
T:Or est Baiers en la pasture
F:https://gallica.bnf.fr/ark:/12148/btv1b6001348v/f74.item
F:https://archive.org/details/oeuvrescompltes00cousgoog/page/n306
Z:Ali Corbin <ali.corbin:gmail.com>
C:Adam de la Halle
N: (condensed)
M:3/4
L:1/4
Q:1/4=280
K:A minor
%
%%MIDI program 1       42 Cello
%%MIDI program 2       72 piccolo
%%MIDI program 3       70 bassoon
V:1 clef=treble
V:2 clef=treble_8
V:3 clef=treble_8
%
[V:1]      A3  | G3 |(G2 A) | G3 |(GF E) | D3  |(E2 F )| E2  C ||       E2  C  ||
[V:2]      A,3 | C3 |(CB,A,)| C3 | C3    | B,3 |(A,2G,)| A,2 A,||       A,2 A, ||
[V:3]      E3  | C3 |(CD E) | C3 |(CB,A,)| G,3 |(A,2B,)| A,2 C ||       A,2 F, ||
w:  1.5.9.~Or    est  Bai-**  ars  en**    la    pas-*   tu- re,  2.10.~Hu- re,
w: 4.~~~~~~Il    por- te**    sou- ef**    l'am- ble-*   u-  re.         ~   ~ 
w: 6.~~~~~~A-   voir  li**    fer- ai**    cou-  ver-*   tu- re,  7.~~~~~Hu-re,
%
[V:1]   (D2 E) | D3  | F3   | E3  |(F E D) | E3   ||(D2 E) | D3  | F3   | E3  |(F E D) | E3  ||
[V:2]   (F,2G,)| B,3 | A,3  | C3  |(C B,A,)| G,3  ||(F,2G,)| B,3 | A,3  | C3  |(C B,A,)| G,3 ||
[V:3]   (A,2B,)| B,3 |(CB,2)| A,3 |(A,G,A,)| B,3  ||(A,2B,)| B,3 |(CB,2)| A,3 |(A,G,A,)| B,3 ||
w: 3.11.~Des*    deus  piés*  def-  fé-**    rés.    Des*    deus  piés*  def-  fé-**    rés  
w: 8.~~~~~~Au*   re-   pai-*  rier  des**    prés.   Au*     re-   pai-*  rier  des**    prés.
W:
W:Or est Baiars en la pasture, % Baiars is in the pasture 
W:Hure,
W:Des deus piés defférés       % Two of his feet are esteemed 
W:Des deus piés defférés
W:
W:Il porte souef l'ambleure.    % He ambles 
W:
W:
W:Or est Baiars en la pasture, 
W:
W:Avoir li ferai couverture,   % I'll make him a blanket 
W:Hure, 
W:Au repairier des prés.       % For returning to his home 
W:Au repairier des prés.
W:
W:Or est Baiars en la pasture, 
W:Hure,
W:Des deus piés defférés 
W:Des deus piés defférés 


